images/million.svg

<svg height="250" viewBox="0 0 250 250" width="250" xmlns="http://www.w3.org/2000/svg" xmlns:xlink="http://www.w3.org/1999/xlink"><linearGradient id="a" gradientTransform="matrix(1.062014 0 0 1.066553 .478811 125.490622)" gradientUnits="userSpaceOnUse" x1="68.035301" x2="166.925201" y1="-110.601303" y2="110.5187"><stop offset="0" stop-color="#f8bd00"/><stop offset=".89" stop-color="#ec9500"/></linearGradient><path d="m124.945312 0c-68.710937.105469-124.464843 56.101562-124.359374 125.105469.105468 69.007812 55.859374 125 124.574218 124.894531 68.710938-.105469 124.359375-55.992188 124.359375-125s-55.753906-125-124.574219-125zm0 0" fill="url(#a)"/><path d="m227.429688 131.507812c.109374-2.136718.214843-4.269531.214843-6.507812 0-15.785156-3.503906-31.464844-10.300781-45.753906l-46.730469-26.984375 31.542969 3.519531c-7.648438-8.960938-16.675781-16.53125-26.761719-22.503906l-61.8125-1.175782 34.515625-10.238281c-8.601562-2.238281-17.414062-3.304687-26.335937-3.304687-17.097657 0-33.984375 4.160156-49.066407 12.15625l11.363282 19.839844-21.027344-14.078126c-.636719.425782-1.167969.746094-1.804688 1.171876l12.320313 22.398437-19.96875 16.957031-2.015625 15.679688-29.207031 28.902344 15.929687-2.558594 8.285156 3.304687-21.878906 16.640625 9.242188 12.15625 27.609375 2.242188 14.339843-11.414063-10.621093-9.066406 39.613281-2.664063 17.097656-18.558593-6.582031-43.195313 28.035156 46.394532-28.25 70.714843-.636719-42.449219-17.839843 46.394532-31.4375 25.488281c16.886719 10.667969 36.320312 16.320313 56.285156 16.425781l29.207031-65.164062-4.671875 62.285156c12.957031-3.09375 25.273438-8.640625 36.214844-16.320312l-1.0625-77.855469 22.40625 57.914062c8.285156-10.238281 14.65625-21.867187 18.691406-34.449219l-27.292969-55.890624zm-144.644532-33.703124-15.1875 3.199218-8.070312 9.382813-4.566406 2.988281 10.726562-20.796875-.214844-7.679687 31.117188-.960938s-13.804688 13.867188-13.804688 13.867188zm1.910156 74.230468-12.53125-9.8125-14.335937 4.691406-19.648437-5.226562 6.691406 18.667969 13.699218 9.0625 7.648438-6.71875zm0 0" fill="#fff"/></svg>

<!-- Generator: Adobe Illustrator 25.3.1, SVG Export Plug-In . SVG Version: 6.00 Build 0)  -->
<svg xmlns="http://www.w3.org/2000/svg" xmlns:xlink="http://www.w3.org/1999/xlink" width="250px" height="250px" viewBox="0 0 250 250" version="1.1">
<defs>
<linearGradient id="linear0" gradientUnits="userSpaceOnUse" x1="68.035301" y1="-110.601303" x2="166.925201" y2="110.5187" gradientTransform="matrix(1.062014,0,0,1.066553,0.478811,125.490622)">
<stop offset="0" style="stop-color:rgb(97.254902%,74.117649%,0%);stop-opacity:1;"/>
<stop offset="0.89" style="stop-color:rgb(92.54902%,58.431375%,0%);stop-opacity:1;"/>
</linearGradient>
</defs>
<g id="surface1">
<path style=" stroke:none;fill-rule:nonzero;fill:url(#linear0);" d="M 124.945312 0 C 56.234375 0.105469 0.480469 56.101562 0.585938 125.105469 C 0.691406 194.113281 56.445312 250.105469 125.160156 250 C 193.871094 249.894531 249.519531 194.007812 249.519531 125 C 249.519531 55.992188 193.765625 0 124.945312 0 Z M 124.945312 0 "/>
<path style=" stroke:none;fill-rule:nonzero;fill:rgb(100%,100%,100%);fill-opacity:1;" d="M 227.429688 131.507812 C 227.539062 129.371094 227.644531 127.238281 227.644531 125 C 227.644531 109.214844 224.140625 93.535156 217.34375 79.246094 L 170.613281 52.261719 L 202.15625 55.78125 C 194.507812 46.820312 185.480469 39.25 175.394531 33.277344 L 113.582031 32.101562 L 148.097656 21.863281 C 139.496094 19.625 130.683594 18.558594 121.761719 18.558594 C 104.664062 18.558594 87.777344 22.71875 72.695312 30.714844 L 84.058594 50.554688 L 63.03125 36.476562 C 62.394531 36.902344 61.863281 37.222656 61.226562 37.648438 L 73.546875 60.046875 L 53.578125 77.003906 L 51.5625 92.683594 L 22.355469 121.585938 L 38.285156 119.027344 L 46.570312 122.332031 L 24.691406 138.972656 L 33.933594 151.128906 L 61.542969 153.371094 L 75.882812 141.957031 L 65.261719 132.890625 L 104.875 130.226562 L 121.972656 111.667969 L 115.390625 68.472656 L 143.425781 114.867188 L 115.175781 185.582031 L 114.539062 143.132812 L 96.699219 189.527344 L 65.261719 215.015625 C 82.148438 225.683594 101.582031 231.335938 121.546875 231.441406 L 150.753906 166.277344 L 146.082031 228.5625 C 159.039062 225.46875 171.355469 219.921875 182.296875 212.242188 L 181.234375 134.386719 L 203.640625 192.300781 C 211.925781 182.0625 218.296875 170.433594 222.332031 157.851562 L 195.039062 101.960938 Z M 82.785156 97.804688 L 67.597656 101.003906 L 59.527344 110.386719 L 54.960938 113.375 L 65.6875 92.578125 L 65.472656 84.898438 L 96.589844 83.9375 C 96.589844 83.9375 82.785156 97.804688 82.785156 97.804688 Z M 84.695312 172.035156 L 72.164062 162.222656 L 57.828125 166.914062 L 38.179688 161.6875 L 44.871094 180.355469 L 58.570312 189.417969 L 66.21875 182.699219 Z M 84.695312 172.035156 "/>
</g>
</svg>
